X: 2232
T: I love my love for she love's me.  a Jig.
N: Yes, the apostrophe is there in "love's".
%R: slip-jig, air
B: Niel Gow & Sons "Complete Repository" v.2 p.23 #2
Z: 2021 John Chambers <jc:trillian.mit.edu>
M: 9/8
L: 1/8
K: Am
% - - - - - - - - - -
V: 1 staves=2
E | A>BA ~c2A cde | G2G Gge dBG | A>BA c2~A cde | dBd gdB A2 :| f | ege ece Tg2e | dge dBG g2d |
eag edB deg | ~ede geB A2f || ege ece Tg2e | dge dBG g2d | eag edB deg | ede gdB A2 |]
% - - - - - - - - - -
% Voice 2 preserves the staff layout in the book.
V: 2 clef=bass middle=d
z | a3 a3 a3 | g3 g3 g3 | a3 a3 a3 | e3 e3 A2 :| z |\
[c'3c3] [c'3c3] [c'3c3] | [g3G3] [g3G3] [g3G3] |
[a3A3] [b3B3] [c'3c3] | [d'3d3] [e'3e3] [a3A3] ||\
[c'3c3] [c'3c3] [c'3c3] | [g3G3] [g3G3] [g3G3] |\
[a3A3] [b3B3] [c'3c3] | [d'3d3] [e'3e3] [a2A2] |]


